docs/assets/conway.svg

<?xml version="1.0" encoding="UTF-8"?>
<svg xmlns="http://www.w3.org/2000/svg" xmlns:xlink="http://www.w3.org/1999/xlink" width="141.931" height="141.931" viewBox="0 0 141.931 141.931">
<defs>
<clipPath id="clip-0">
<path clip-rule="nonzero" d="M 0 0 L 141.863281 0 L 141.863281 141.863281 L 0 141.863281 Z M 0 0 "/>
</clipPath>
</defs>
<g clip-path="url(#clip-0)">
<path fill="none" stroke-width="0.19925" stroke-linecap="butt" stroke-linejoin="miter" stroke="rgb(50%, 50%, 50%)" stroke-opacity="1" stroke-miterlimit="10" d="M 0.00161187 0.000363546 L 141.734545 0.000363546 M 0.00161187 28.346168 L 141.734545 28.346168 M 0.00161187 56.691973 L 141.734545 56.691973 M 0.00161187 85.041686 L 141.734545 85.041686 M 0.00161187 113.387491 L 141.734545 113.387491 M 0.00161187 141.72548 L 141.734545 141.72548 M 0.00161187 0.000363546 L 0.00161187 141.733296 M 28.347417 0.000363546 L 28.347417 141.733296 M 56.693222 0.000363546 L 56.693222 141.733296 M 85.039027 0.000363546 L 85.039027 141.733296 M 113.38874 0.000363546 L 113.38874 141.733296 M 141.72282 0.000363546 L 141.72282 141.733296 " transform="matrix(0.999514, 0, 0, -0.999514, 0.0999514, 141.762082)"/>
</g>
<path fill-rule="nonzero" fill="rgb(89.99939%, 89.99939%, 89.99939%)" fill-opacity="1" stroke-width="0.3985" stroke-linecap="butt" stroke-linejoin="miter" stroke="rgb(0%, 0%, 0%)" stroke-opacity="1" stroke-miterlimit="10" d="M 28.347417 28.346168 L 28.347417 56.691973 L 56.693222 56.691973 L 56.693222 28.346168 Z M 28.347417 28.346168 " transform="matrix(0.999514, 0, 0, -0.999514, 0.0999514, 141.762082)"/>
<path fill-rule="nonzero" fill="rgb(89.99939%, 89.99939%, 89.99939%)" fill-opacity="1" stroke-width="0.3985" stroke-linecap="butt" stroke-linejoin="miter" stroke="rgb(0%, 0%, 0%)" stroke-opacity="1" stroke-miterlimit="10" d="M 56.693222 28.346168 L 56.693222 56.691973 L 85.039027 56.691973 L 85.039027 28.346168 Z M 56.693222 28.346168 " transform="matrix(0.999514, 0, 0, -0.999514, 0.0999514, 141.762082)"/>
<path fill-rule="nonzero" fill="rgb(89.99939%, 89.99939%, 89.99939%)" fill-opacity="1" stroke-width="0.3985" stroke-linecap="butt" stroke-linejoin="miter" stroke="rgb(0%, 0%, 0%)" stroke-opacity="1" stroke-miterlimit="10" d="M 85.039027 28.346168 L 85.039027 56.691973 L 113.38874 56.691973 L 113.38874 28.346168 Z M 85.039027 28.346168 " transform="matrix(0.999514, 0, 0, -0.999514, 0.0999514, 141.762082)"/>
<path fill-rule="nonzero" fill="rgb(89.99939%, 89.99939%, 89.99939%)" fill-opacity="1" stroke-width="0.3985" stroke-linecap="butt" stroke-linejoin="miter" stroke="rgb(0%, 0%, 0%)" stroke-opacity="1" stroke-miterlimit="10" d="M 85.039027 56.691973 L 85.039027 85.041686 L 113.38874 85.041686 L 113.38874 56.691973 Z M 85.039027 56.691973 " transform="matrix(0.999514, 0, 0, -0.999514, 0.0999514, 141.762082)"/>
<path fill-rule="nonzero" fill="rgb(89.99939%, 89.99939%, 89.99939%)" fill-opacity="1" stroke-width="0.3985" stroke-linecap="butt" stroke-linejoin="miter" stroke="rgb(0%, 0%, 0%)" stroke-opacity="1" stroke-miterlimit="10" d="M 56.693222 85.041686 L 56.693222 113.387491 L 85.039027 113.387491 L 85.039027 85.041686 Z M 56.693222 85.041686 " transform="matrix(0.999514, 0, 0, -0.999514, 0.0999514, 141.762082)"/>
</svg>

<?xml version="1.0" encoding="UTF-8"?>
<svg width="160" height="160" version="1.1" viewBox="0 0 160 160" xmlns="http://www.w3.org/2000/svg">
 <defs>
  <clipPath id="clip-0">
   <path d="m0 0h141.86v141.86h-141.86z"/>
  </clipPath>
 </defs>
 <rect width="160" height="160" rx="0" fill="#fff" stroke-dashoffset="85.304" stroke-linecap="round" stroke-miterlimit="0" stroke-width="1.0194" style="paint-order:markers fill stroke"/>
 <g transform="translate(9.0345 9.0345)" clip-path="url(#clip-0)">
  <path transform="matrix(.99951 0 0 -.99951 .099951 141.76)" d="m0.0016119 3.6355e-4h141.73m-141.73 28.346h141.73m-141.73 28.346h141.73m-141.73 28.35h141.73m-141.73 28.346h141.73m-141.73 28.338h141.73m-141.73-141.73v141.73m28.346-141.73v141.73m28.346-141.73v141.73m28.346-141.73v141.73m28.35-141.73v141.73m28.334-141.73v141.73" fill="none" stroke="#7f7f7f" stroke-miterlimit="10" stroke-width=".19925"/>
 </g>
 <g stroke="#000" stroke-miterlimit="10" stroke-width=".39831">
  <path d="m37.468 122.46v-28.332h28.332v28.332z"/>
  <path d="m65.8 122.46v-28.332h28.332v28.332z"/>
  <path d="m94.132 122.46v-28.332h28.336v28.332z"/>
  <path d="m94.132 94.132v-28.336h28.336v28.336z"/>
  <path d="m65.8 65.796v-28.332h28.332v28.332z"/>
 </g>
</svg>
